img/packages-geo.svg

<svg width="14" height="15" viewBox="0 0 14 15" fill="none" xmlns="http://www.w3.org/2000/svg">
<g clip-path="url(#clip0)">
<path fill-rule="evenodd" clip-rule="evenodd" d="M7.00008 2.06497C5.7624 2.06497 4.57542 2.55172 3.70025 3.41814C2.82508 4.28456 2.33341 5.45967 2.33341 6.68497C2.33341 8.4741 3.50926 10.2102 4.79855 11.5575C5.43127 12.2187 6.06597 12.76 6.54314 13.1361C6.72073 13.2761 6.87584 13.3927 7.00008 13.4836C7.12432 13.3927 7.27943 13.2761 7.45702 13.1361C7.93419 12.76 8.56889 12.2187 9.20161 11.5575C10.4909 10.2102 11.6667 8.4741 11.6667 6.68497C11.6667 5.45967 11.1751 4.28456 10.2999 3.41814C9.42474 2.55172 8.23776 2.06497 7.00008 2.06497ZM7.00008 14.1925C6.67651 14.673 6.67636 14.6729 6.67619 14.6728L6.67452 14.6717L6.67064 14.6691L6.65727 14.6601C6.64591 14.6525 6.62971 14.6415 6.60899 14.6273C6.56756 14.5989 6.50802 14.5575 6.43296 14.5039C6.2829 14.3966 6.07046 14.24 5.81639 14.0397C5.30919 13.6398 4.63139 13.0622 3.95161 12.3518C2.6159 10.956 1.16675 8.93834 1.16675 6.68497C1.16675 5.15335 1.78133 3.68445 2.87529 2.60143C3.96925 1.51841 5.45299 0.909973 7.00008 0.909973C8.54718 0.909973 10.0309 1.51841 11.1249 2.60143C12.2188 3.68445 12.8334 5.15335 12.8334 6.68497C12.8334 8.93834 11.3843 10.956 10.0486 12.3518C9.36877 13.0622 8.69097 13.6398 8.18377 14.0397C7.9297 14.24 7.71726 14.3966 7.5672 14.5039C7.49214 14.5575 7.43261 14.5989 7.39117 14.6273C7.37045 14.6415 7.35425 14.6525 7.3429 14.6601L7.32953 14.6691L7.32564 14.6717L7.32441 14.6725C7.32424 14.6726 7.32366 14.673 7.00008 14.1925ZM7.00008 14.1925L7.32366 14.673C7.12771 14.8023 6.87213 14.8021 6.67619 14.6728L7.00008 14.1925Z" fill="white"/>
<path fill-rule="evenodd" clip-rule="evenodd" d="M7.00008 5.53C6.35575 5.53 5.83341 6.04711 5.83341 6.685C5.83341 7.32289 6.35575 7.84 7.00008 7.84C7.64441 7.84 8.16675 7.32289 8.16675 6.685C8.16675 6.04711 7.64441 5.53 7.00008 5.53ZM4.66675 6.685C4.66675 5.40922 5.71142 4.375 7.00008 4.375C8.28875 4.375 9.33341 5.40922 9.33341 6.685C9.33341 7.96078 8.28875 8.995 7.00008 8.995C5.71142 8.995 4.66675 7.96078 4.66675 6.685Z" fill="white"/>
</g>
<defs>
<clipPath id="clip0">
<rect width="14" height="13.86" fill="white" transform="translate(0 0.909973)"/>
</clipPath>
</defs>
</svg>

<svg width="14" height="15" fill="none" xmlns="http://www.w3.org/2000/svg"><g clip-path="url(#prefix__a)" fill-rule="evenodd" clip-rule="evenodd" fill="#fff"><path d="M7 2.065a4.69 4.69 0 0 0-3.3 1.353 4.597 4.597 0 0 0-1.367 3.267c0 1.79 1.176 3.525 2.466 4.872A17.095 17.095 0 0 0 7 13.484a17.095 17.095 0 0 0 2.202-1.926c1.289-1.348 2.465-3.084 2.465-4.873 0-1.225-.492-2.4-1.367-3.267A4.69 4.69 0 0 0 7 2.065zm0 12.128-.324.48-.001-.001-.004-.003-.014-.009a5.571 5.571 0 0 1-.224-.156 18.272 18.272 0 0 1-2.481-2.152c-1.336-1.396-2.785-3.414-2.785-5.667 0-1.532.614-3 1.708-4.084A5.863 5.863 0 0 1 7 .91c1.547 0 3.03.608 4.125 1.691a5.746 5.746 0 0 1 1.708 4.084c0 2.253-1.449 4.271-2.784 5.667a18.277 18.277 0 0 1-2.658 2.275l-.048.033-.013.01-.004.002h-.002L7 14.192zm0 0 .324.48a.589.589 0 0 1-.648 0l.324-.48z"/><path d="M7 5.53a1.16 1.16 0 0 0-1.167 1.155A1.16 1.16 0 0 0 7 7.84a1.16 1.16 0 0 0 1.167-1.155A1.16 1.16 0 0 0 7 5.53zM4.667 6.685c0-1.276 1.044-2.31 2.333-2.31 1.289 0 2.333 1.034 2.333 2.31S8.29 8.995 7 8.995c-1.289 0-2.333-1.034-2.333-2.31z"/></g><defs><clipPath id="prefix__a"><path fill="#fff" transform="translate(0 .91)" d="M0 0h14v13.86H0z"/></clipPath></defs></svg>
